logos/microns.svg

<?xml version="1.0" encoding="UTF-8"?>
<!DOCTYPE svg PUBLIC "-//W3C//DTD SVG 1.1//EN" "http://www.w3.org/Graphics/SVG/1.1/DTD/svg11.dtd">
<svg xmlns="http://www.w3.org/2000/svg" version="1.1" width="368px" height="114px" style="shape-rendering:geometricPrecision; text-rendering:geometricPrecision; image-rendering:optimizeQuality; fill-rule:evenodd; clip-rule:evenodd" xmlns:xlink="http://www.w3.org/1999/xlink">
<g><path style="opacity:1" fill="#010101" d="M -0.5,-0.5 C 122.167,-0.5 244.833,-0.5 367.5,-0.5C 367.5,37.5 367.5,75.5 367.5,113.5C 244.833,113.5 122.167,113.5 -0.5,113.5C -0.5,75.5 -0.5,37.5 -0.5,-0.5 Z"/></g>
<g><path style="opacity:1" fill="#f6f6f6" d="M 130.5,27.5 C 145.088,24.9664 156.421,29.7997 164.5,42C 161.167,42.6667 157.833,42.6667 154.5,42C 145.641,33.2807 135.974,32.2807 125.5,39C 116.102,48.1333 114.935,58.3 122,69.5C 130.234,78.3449 139.734,79.8449 150.5,74C 154.174,70.4225 158.507,69.5891 163.5,71.5C 155.795,82.6885 145.128,87.1885 131.5,85C 115.242,78.6478 108.075,66.8145 110,49.5C 113.285,38.7191 120.119,31.3858 130.5,27.5 Z"/></g>
<g><path style="opacity:1" fill="#f5f5f5" d="M 215.5,27.5 C 234.531,24.9168 247.031,32.5835 253,50.5C 253.154,75.0121 240.987,86.5121 216.5,85C 195.723,75.9988 189.89,61.1655 199,40.5C 203.166,34.3502 208.666,30.0168 215.5,27.5 Z"/></g>
<g><path style="opacity:1" fill="#f5f5f5" d="M 327.5,26.5 C 339.29,25.7003 345.957,31.0336 347.5,42.5C 344.5,42.5 341.5,42.5 338.5,42.5C 338.651,37.6511 336.317,34.9844 331.5,34.5C 322.234,37.6629 321.234,42.4963 328.5,49C 335.311,50.4827 341.144,53.6494 346,58.5C 349.208,65.1237 349.208,71.7903 346,78.5C 336.292,87.8264 326.626,87.8264 317,78.5C 315.241,74.9913 314.074,71.3246 313.5,67.5C 316.5,67.5 319.5,67.5 322.5,67.5C 323.597,77.2172 328.597,79.8838 337.5,75.5C 341.461,71.0361 341.461,66.5361 337.5,62C 331.542,59.9054 325.876,57.2388 320.5,54C 312.064,42.0761 314.398,32.9095 327.5,26.5 Z"/></g>
<g><path style="opacity:1" fill="#4e4e4e" d="M 35.5,28.5 C 31.1667,28.5 26.8333,28.5 22.5,28.5C 22.5,47.1667 22.5,65.8333 22.5,84.5C 21.503,65.674 21.1697,46.674 21.5,27.5C 26.3633,27.1805 31.03,27.5139 35.5,28.5 Z"/></g>
<g><path style="opacity:1" fill="#fafafa" d="M 35.5,28.5 C 40.8941,42.5108 46.3941,56.5108 52,70.5C 57.7613,56.3591 63.5946,42.3591 69.5,28.5C 73.5,28.5 77.5,28.5 81.5,28.5C 81.5,47.1667 81.5,65.8333 81.5,84.5C 79.1667,84.5 76.8333,84.5 74.5,84.5C 74.6666,68.4965 74.4999,52.4965 74,36.5C 72.9614,37.2438 72.4614,38.2438 72.5,39.5C 66.9213,54.4925 60.9213,69.3259 54.5,84C 51.1735,84.9701 49.0068,83.8034 48,80.5C 42.3333,66.1667 36.6667,51.8333 31,37.5C 30.5001,53.1631 30.3334,68.8298 30.5,84.5C 27.8333,84.5 25.1667,84.5 22.5,84.5C 22.5,65.8333 22.5,47.1667 22.5,28.5C 26.8333,28.5 31.1667,28.5 35.5,28.5 Z"/></g>
<g><path style="opacity:1" fill="#acacac" d="M 69.5,28.5 C 73.6344,27.5151 77.9677,27.1818 82.5,27.5C 82.8303,46.674 82.497,65.674 81.5,84.5C 81.5,65.8333 81.5,47.1667 81.5,28.5C 77.5,28.5 73.5,28.5 69.5,28.5 Z"/></g>
<g><path style="opacity:1" fill="#4b4b4b" d="M 101.5,28.5 C 98.8333,28.5 96.1667,28.5 93.5,28.5C 93.5,47.1667 93.5,65.8333 93.5,84.5C 92.503,65.674 92.1697,46.674 92.5,27.5C 95.7131,27.19 98.7131,27.5233 101.5,28.5 Z"/></g>
<g><path style="opacity:1" fill="#fefefe" d="M 101.5,28.5 C 101.5,47.1667 101.5,65.8333 101.5,84.5C 98.8333,84.5 96.1667,84.5 93.5,84.5C 93.5,65.8333 93.5,47.1667 93.5,28.5C 96.1667,28.5 98.8333,28.5 101.5,28.5 Z"/></g>
<g><path style="opacity:1" fill="#4c4c4c" d="M 270.5,28.5 C 267.5,28.5 264.5,28.5 261.5,28.5C 261.5,47.1667 261.5,65.8333 261.5,84.5C 260.503,65.674 260.17,46.674 260.5,27.5C 264.042,27.1872 267.375,27.5206 270.5,28.5 Z"/></g>
<g><path style="opacity:1" fill="#fcfcfc" d="M 270.5,28.5 C 279.416,41.9976 288.083,55.6643 296.5,69.5C 296.56,70.0431 296.893,70.3764 297.5,70.5C 298.499,56.5159 298.833,42.5159 298.5,28.5C 300.833,28.5 303.167,28.5 305.5,28.5C 305.5,47.1667 305.5,65.8333 305.5,84.5C 301.993,85.0065 298.826,84.3398 296,82.5C 287.583,68.6643 278.916,54.9976 270,41.5C 269.5,55.8295 269.333,70.1628 269.5,84.5C 266.833,84.5 264.167,84.5 261.5,84.5C 261.5,65.8333 261.5,47.1667 261.5,28.5C 264.5,28.5 267.5,28.5 270.5,28.5 Z"/></g>
<g><path style="opacity:1" fill="#a1a1a1" d="M 305.5,84.5 C 305.5,65.8333 305.5,47.1667 305.5,28.5C 303.167,28.5 300.833,28.5 298.5,28.5C 298.833,42.5159 298.499,56.5159 297.5,70.5C 296.893,70.3764 296.56,70.0431 296.5,69.5C 297.496,55.6766 297.829,41.6766 297.5,27.5C 300.5,27.5 303.5,27.5 306.5,27.5C 306.83,46.674 306.497,65.674 305.5,84.5 Z"/></g>
<g><path style="opacity:1" fill="#030303" d="M 218.5,34.5 C 230.748,33.2051 239.248,38.2051 244,49.5C 245.812,71.3568 235.978,80.1901 214.5,76C 200.208,65.04 198.875,52.7066 210.5,39C 213.099,37.205 215.766,35.705 218.5,34.5 Z"/></g>
<g><path style="opacity:1" fill="#8c8c8c" d="M 74.5,84.5 C 73.8333,69.5 73.1667,54.5 72.5,39.5C 72.4614,38.2438 72.9614,37.2438 74,36.5C 74.4999,52.4965 74.6666,68.4965 74.5,84.5 Z"/></g>
<g><path style="opacity:1" fill="#5a5a5a" d="M 171.5,42.5 C 173.948,41.5269 176.615,41.1936 179.5,41.5C 179.263,42.791 179.596,43.791 180.5,44.5C 180.44,45.0431 180.107,45.3764 179.5,45.5C 178.614,44.675 178.281,43.675 178.5,42.5C 176.167,42.5 173.833,42.5 171.5,42.5 Z"/></g>
<g><path style="opacity:1" fill="#fafafa" d="M 187.5,41.5 C 189.369,43.6353 190.036,46.3019 189.5,49.5C 185.316,49.8444 182.149,51.8444 180,55.5C 179.5,65.1609 179.334,74.8276 179.5,84.5C 176.833,84.5 174.167,84.5 171.5,84.5C 171.5,70.5 171.5,56.5 171.5,42.5C 173.833,42.5 176.167,42.5 178.5,42.5C 178.281,43.675 178.614,44.675 179.5,45.5C 180.107,45.3764 180.44,45.0431 180.5,44.5C 182.426,42.7073 184.759,41.7073 187.5,41.5 Z"/></g>
<g><path style="opacity:1" fill="#676767" d="M 187.5,41.5 C 188.209,40.596 189.209,40.2627 190.5,40.5C 190.81,43.7131 190.477,46.7131 189.5,49.5C 190.036,46.3019 189.369,43.6353 187.5,41.5 Z"/></g>
</svg>

<svg xmlns="http://www.w3.org/2000/svg" width="368" height="114" style="shape-rendering:geometricPrecision;text-rendering:geometricPrecision;image-rendering:optimizeQuality;fill-rule:evenodd;clip-rule:evenodd"><path style="opacity:1" fill="#010101" d="M-.5-.5h368v114H-.5V-.5z"/><path style="opacity:1" fill="#f6f6f6" d="M130.5 27.5c14.588-2.534 25.921 2.3 34 14.5a25.249 25.249 0 0 1-10 0c-8.859-8.72-18.526-9.72-29-3-9.398 9.133-10.565 19.3-3.5 30.5 8.234 8.845 17.734 10.345 28.5 4.5 3.674-3.578 8.007-4.41 13-2.5-7.705 11.189-18.372 15.689-32 13.5-16.258-6.352-23.425-18.186-21.5-35.5 3.285-10.78 10.119-18.114 20.5-22z"/><path style="opacity:1" fill="#f5f5f5" d="M215.5 27.5c19.031-2.583 31.531 5.084 37.5 23 .154 24.512-12.013 36.012-36.5 34.5-20.777-9.001-26.61-23.834-17.5-44.5 4.166-6.15 9.666-10.483 16.5-13zM327.5 26.5c11.79-.8 18.457 4.534 20 16h-9c.151-4.849-2.183-7.516-7-8-9.266 3.163-10.266 7.996-3 14.5 6.811 1.483 12.644 4.65 17.5 9.5 3.208 6.624 3.208 13.29 0 20-9.708 9.326-19.374 9.326-29 0a36.488 36.488 0 0 1-3.5-11h9c1.097 9.717 6.097 12.384 15 8 3.961-4.464 3.961-8.964 0-13.5a91.945 91.945 0 0 1-17-8c-8.436-11.924-6.102-21.09 7-27.5z"/><path style="opacity:1" fill="#4e4e4e" d="M35.5 28.5h-13v56a812.816 812.816 0 0 1-1-57c4.863-.32 9.53.014 14 1z"/><path style="opacity:1" fill="#fafafa" d="M35.5 28.5a3310.506 3310.506 0 0 0 16.5 42 2858.684 2858.684 0 0 1 17.5-42h12v56h-7c.167-16.004 0-32.004-.5-48-1.039.744-1.539 1.744-1.5 3a853.11 853.11 0 0 1-18 44.5c-3.327.97-5.493-.197-6.5-3.5l-17-43c-.5 15.663-.667 31.33-.5 47h-8v-56h13z"/><path style="opacity:1" fill="#acacac" d="M69.5 28.5c4.134-.985 8.468-1.318 13-1a812.816 812.816 0 0 1-1 57v-56h-12z"/><path style="opacity:1" fill="#4b4b4b" d="M101.5 28.5h-8v56a812.816 812.816 0 0 1-1-57c3.213-.31 6.213.023 9 1z"/><path style="opacity:1" fill="#fefefe" d="M101.5 28.5v56h-8v-56h8z"/><path style="opacity:1" fill="#4c4c4c" d="M270.5 28.5h-9v56a813 813 0 0 1-1-57c3.542-.313 6.875.02 10 1z"/><path style="opacity:1" fill="#fcfcfc" d="M270.5 28.5a1304.175 1304.175 0 0 1 26 41c.06.543.393.876 1 1a441.816 441.816 0 0 0 1-42h7v56c-3.507.507-6.674-.16-9.5-2a1304.175 1304.175 0 0 0-26-41c-.5 14.33-.667 28.663-.5 43h-8v-56h9z"/><path style="opacity:1" fill="#a1a1a1" d="M305.5 84.5v-56h-7a441.816 441.816 0 0 1-1 42c-.607-.124-.94-.457-1-1a441.585 441.585 0 0 0 1-42h9a813 813 0 0 1-1 57z"/><path style="opacity:1" fill="#030303" d="M218.5 34.5c12.248-1.295 20.748 3.705 25.5 15 1.812 21.857-8.022 30.69-29.5 26.5-14.292-10.96-15.625-23.293-4-37a48.484 48.484 0 0 1 8-4.5z"/><path style="opacity:1" fill="#8c8c8c" d="m74.5 84.5-2-45c-.039-1.256.461-2.256 1.5-3 .5 15.996.667 31.996.5 48z"/><path style="opacity:1" fill="#5a5a5a" d="M171.5 42.5c2.448-.973 5.115-1.306 8-1-.237 1.291.096 2.291 1 3-.06.543-.393.876-1 1-.886-.825-1.219-1.825-1-3h-7z"/><path style="opacity:1" fill="#fafafa" d="M187.5 41.5c1.869 2.135 2.536 4.802 2 8-4.184.344-7.351 2.344-9.5 6-.5 9.66-.666 19.328-.5 29h-8v-42h7c-.219 1.175.114 2.175 1 3 .607-.124.94-.457 1-1 1.926-1.793 4.259-2.793 7-3z"/><path style="opacity:1" fill="#676767" d="M187.5 41.5c.709-.904 1.709-1.237 3-1 .31 3.213-.023 6.213-1 9 .536-3.198-.131-5.865-2-8z"/></svg>
